app/img/main/telegram.svg

<svg width="20" height="18" viewBox="0 0 20 18" fill="none" xmlns="http://www.w3.org/2000/svg">
<path d="M0.350701 8.37408L4.9488 10.0886L6.74126 15.8557C6.8192 16.2454 7.2868 16.3233 7.59854 16.0895L10.1703 13.9853C10.4041 13.7515 10.7938 13.7515 11.1055 13.9853L15.7036 17.3364C16.0154 17.5702 16.483 17.4144 16.5609 17.0247L19.99 0.658655C20.0679 0.268988 19.6782 -0.120677 19.2886 0.0351905L0.350701 7.36095C-0.1169 7.51681 -0.1169 8.21821 0.350701 8.37408ZM6.50747 9.23135L15.5477 3.69807C15.7036 3.62013 15.8595 3.85394 15.7036 3.93187L8.29993 10.868C8.06613 11.1018 7.83233 11.4135 7.83233 11.8032L7.59854 13.6736C7.59854 13.9074 7.20886 13.9853 7.13093 13.6736L6.19572 10.2445C5.96192 9.85482 6.1178 9.38721 6.50747 9.23135Z" fill="white"/>
</svg>

<svg width="20" height="18" fill="none" xmlns="http://www.w3.org/2000/svg"><path d="M.35 8.374l4.6 1.716 1.792 5.767c.078.39.546.467.858.234l2.571-2.105c.234-.233.624-.233.935 0l4.599 3.351c.311.234.779.078.857-.311L19.99.659c.078-.39-.312-.78-.701-.624L.35 7.361c-.468.156-.468.857 0 1.013zm6.157.857l9.04-5.533c.157-.078.313.156.157.234L8.3 10.868c-.234.234-.468.546-.468.935l-.233 1.87c0 .234-.39.312-.468 0l-.935-3.428c-.234-.39-.078-.858.311-1.014z" fill="#fff"/></svg>
